img/mirror.svg

<svg version="1.1" xmlns="http://www.w3.org/2000/svg" xmlns:xlink="http://www.w3.org/1999/xlink" width="101" height="100"><defs/><g><rect fill="black" stroke="none" x="0" y="0" width="101" height="100"/><g/><path fill="none" stroke="rgb(0,255,0)" paint-order="fill stroke markers" d=" M -31.52908884548115 44.71158616989317 L -20.23190738624118 90.09698617948321" stroke-miterlimit="10" stroke-width="4" stroke-dasharray=""/><path fill="none" stroke="rgb(128,128,128)" paint-order="fill stroke markers" d=" M -33.469867555282505 45.19467829318001 L -22.172686096042533 90.58007830277005" stroke-opacity="255" stroke-miterlimit="10" stroke-width="2" stroke-dasharray=""/><path fill="none" stroke="rgb(168,168,168)" paint-order="fill stroke markers" d=" M 38.91459667200472 15.686355250526683 L 85.58325328012515 80.4276778980663" stroke-miterlimit="10" stroke-dasharray=""/><path fill="none" stroke="rgb(255,255,128)" paint-order="fill stroke markers" d=" M -32.2621372470654 50.046625067683394 L 49.086632798770005 29.797562230304003" stroke-miterlimit="10" stroke-dasharray=""/><path fill="none" stroke="rgb(255,255,128)" paint-order="fill stroke markers" d=" M -29.846676630631187 59.750518616690165 L 55.38495886648039 38.534945941882626" stroke-miterlimit="10" stroke-dasharray=""/><path fill="none" stroke="rgb(255,255,128)" paint-order="fill stroke markers" d=" M -27.431216014196977 69.45441216569694 L 61.68328493419077 47.27232965346124" stroke-miterlimit="10" stroke-dasharray=""/><path fill="none" stroke="rgb(255,255,128)" paint-order="fill stroke markers" d=" M -25.015755397762764 79.15830571470372 L 67.98161100190114 56.009713365039865" stroke-miterlimit="10" stroke-dasharray=""/><path fill="none" stroke="rgb(255,255,128)" paint-order="fill stroke markers" d=" M -22.60029478132855 88.86219926371047 L 74.27993706961153 64.74709707661847" stroke-miterlimit="10" stroke-dasharray=""/><path fill="none" stroke="rgb(255,255,128)" paint-order="fill stroke markers" d=" M 49.086632798770005 29.797562230304003 L -1191.135786181923 1983.6187549501392" stroke-miterlimit="10" stroke-dasharray=""/><path fill="none" stroke="rgb(255,255,128)" paint-order="fill stroke markers" d=" M 55.38495886648039 38.534945941882626 L -1192.895338462187 2005.0503564436942" stroke-miterlimit="10" stroke-dasharray=""/><path fill="none" stroke="rgb(255,255,128)" paint-order="fill stroke markers" d=" M 61.68328493419077 47.27232965346124 L -1194.654890742451 2026.4819579372495" stroke-miterlimit="10" stroke-dasharray=""/><path fill="none" stroke="rgb(255,255,128)" paint-order="fill stroke markers" d=" M 67.98161100190114 56.009713365039865 L -1196.4144430227154 2047.9135594308052" stroke-miterlimit="10" stroke-dasharray=""/><path fill="none" stroke="rgb(255,255,128)" paint-order="fill stroke markers" d=" M 74.27993706961153 64.74709707661847 L -1198.173995302979 2069.34516092436" stroke-miterlimit="10" stroke-dasharray=""/><path fill="none" stroke="rgb(0,255,0)" paint-order="fill stroke markers" d=" M -31.52908884548115 44.71158616989317 L -20.23190738624118 90.09698617948321" stroke-miterlimit="10" stroke-width="4" stroke-dasharray=""/><path fill="none" stroke="rgb(128,128,128)" paint-order="fill stroke markers" d=" M -33.469867555282505 45.19467829318001 L -22.172686096042533 90.58007830277005" stroke-opacity="255" stroke-miterlimit="10" stroke-width="2" stroke-dasharray=""/><path fill="none" stroke="rgb(168,168,168)" paint-order="fill stroke markers" d=" M 38.91459667200472 15.686355250526683 L 85.58325328012515 80.4276778980663" stroke-miterlimit="10" stroke-dasharray=""/></g></svg>

<svg xmlns="http://www.w3.org/2000/svg" width="101" height="100"><path d="M0 0h101v100H0z"/><path fill="none" stroke="#0F0" paint-order="fill stroke markers" d="m-31.53 44.712 11.298 45.385" stroke-miterlimit="10" stroke-width="4"/><path fill="none" stroke="gray" paint-order="fill stroke markers" d="m-33.47 45.195 11.297 45.385" stroke-opacity="255" stroke-miterlimit="10" stroke-width="2"/><path fill="none" stroke="#A8A8A8" paint-order="fill stroke markers" d="m38.915 15.686 46.668 64.742" stroke-miterlimit="10"/><path fill="none" stroke="#FFFF80" paint-order="fill stroke markers" d="m-32.262 50.047 81.349-20.25M-29.847 59.75l85.232-21.215M-27.431 69.454l89.114-22.182M-25.016 79.158 67.982 56.01M-22.6 88.862l96.88-24.115M49.087 29.798l-1240.223 1953.82M55.385 38.535l-1248.28 1966.515M61.683 47.272l-1256.338 1979.21M67.982 56.01l-1264.396 1991.904M74.28 64.747l-1272.454 2004.598" stroke-miterlimit="10"/><path fill="none" stroke="#0F0" paint-order="fill stroke markers" d="m-31.53 44.712 11.298 45.385" stroke-miterlimit="10" stroke-width="4"/><path fill="none" stroke="gray" paint-order="fill stroke markers" d="m-33.47 45.195 11.297 45.385" stroke-opacity="255" stroke-miterlimit="10" stroke-width="2"/><path fill="none" stroke="#A8A8A8" paint-order="fill stroke markers" d="m38.915 15.686 46.668 64.742" stroke-miterlimit="10"/></svg>
